icons/female_sex_worker_fill.svg

<svg width="48" height="48" viewBox="0 0 48 48" fill="none" xmlns="http://www.w3.org/2000/svg">
<path d="M14.5002 13C16.4332 13 18.0002 11.433 18.0002 9.5C18.0002 7.567 16.4332 6 14.5002 6C12.5672 6 11.0002 7.567 11.0002 9.5C11.0002 11.433 12.5672 13 14.5002 13Z" fill="black"/>
<path d="M18.5002 15.0005C18.6238 15.0005 18.7469 15.0158 18.8668 15.046C19.9805 15.3266 20.7287 16.0049 21.1996 16.9317C21.6118 17.7429 21.8128 18.7517 21.9798 19.7539L22.9798 25.7539C23.116 26.5711 22.564 27.3439 21.7468 27.4801C20.9297 27.6163 20.1568 27.0642 20.0207 26.2471L19.0207 20.2471C18.9278 19.6901 18.8423 19.2657 18.7554 18.9382L18.5002 22C18.5002 23.6064 20.2033 32.3609 20.7981 35.3696C20.9084 35.9272 20.5316 36.4608 19.9691 36.5426C15.8487 37.1418 13.152 37.1615 9.03036 36.5471C8.46827 36.4634 8.09448 35.9273 8.20716 35.3703C8.80628 32.4085 10.5001 23.8697 10.5002 22.0002L10.2451 18.9388C10.1582 19.2663 10.0727 19.6907 9.97983 20.2478L8.97983 26.2478C8.84363 27.065 8.07079 27.617 7.25364 27.4808C6.43648 27.3446 5.88445 26.5718 6.02064 25.7546L7.02064 19.7546C7.18768 18.7524 7.38866 17.7436 7.80088 16.9324C8.27179 16.0056 9.02 15.3273 10.1337 15.0467C10.2529 15.0166 10.3752 15.0014 10.4981 15.0012C10.7496 15.0008 11.6262 15.0008 12.4379 15.0009L12.9603 15.001C12.9736 15.0007 12.9869 15.0005 13.0002 15.0005H18.5002Z" fill="black"/>
<path d="M10.6314 38.1115L11.008 41.1241C11.0677 41.6018 11.4594 41.9692 11.94 41.9982C12.4206 42.0273 12.8536 41.7097 12.9704 41.2426L13.6901 38.3637C12.6984 38.3256 11.6907 38.2418 10.6314 38.1115Z" fill="black"/>
<path d="M15.3159 38.3853L16.0301 41.2421C16.1469 41.7092 16.5799 42.0268 17.0605 41.9977C17.5411 41.9687 17.9328 41.6014 17.9925 41.1236L18.3566 38.2111C17.3144 38.3149 16.3132 38.3733 15.3159 38.3853Z" fill="black"/>
<path fill-rule="evenodd" clip-rule="evenodd" d="M32 24V22H31C28.7909 22 27 20.2091 27 18H29C29 19.1046 29.8954 20 31 20H32V16H31C28.7909 16 27 14.2091 27 12C27 9.79086 28.7909 8 31 8H32V6H34V8H35C37.2091 8 39 9.79086 39 12H37C37 10.8954 36.1046 10 35 10H34V14H35C37.2091 14 39 15.7909 39 18C39 20.2091 37.2091 22 35 22H34V24H32ZM35 20H34V16H35C36.1046 16 37 16.8954 37 18C37 19.1046 36.1046 20 35 20ZM31 10H32V14H31C29.8954 14 29 13.1046 29 12C29 10.8954 29.8954 10 31 10Z" fill="black"/>
<path fill-rule="evenodd" clip-rule="evenodd" d="M24 35C24 33.6938 24.8348 32.5825 26 32.1707V26H28V27L38 27V26H40V32.1707C41.1652 32.5825 42 33.6938 42 35V42H40V39H26V42H24V35ZM38 29H36V32H38V29ZM34 29L32 29V32H34V29ZM30 29H28V32H30V29ZM27 34C26.4477 34 26 34.4477 26 35V37H40V35C40 34.4477 39.5523 34 39 34H27Z" fill="black"/>
</svg>

<svg
  xmlns="http://www.w3.org/2000/svg"
  width="24"
  height="24"
  viewBox="0 0 24 24"
  fill="none"
  stroke="currentColor"
  stroke-width="2"
  stroke-linecap="round"
  stroke-linejoin="round"
>
  <path d="M14.5 13a3.5 3.5 0 1 0 0-7 3.5 3.5 0 0 0 0 7" />
  <path d="M18.5 15a1.5 1.5 0 0 1 .367.046c1.113.28 1.862.959 2.333 1.886.412.81.613 1.82.78 2.822l1 6a1.5 1.5 0 1 1-2.96.493l-1-6a15 15 0 0 0-.265-1.309L18.5 22c0 1.606 1.703 10.36 2.298 13.37a.99.99 0 0 1-.829 1.173c-4.12.599-6.817.618-10.939.004a.99.99 0 0 1-.823-1.177c.6-2.962 2.293-11.5 2.293-13.37l-.255-3.061c-.087.327-.172.752-.265 1.309l-1 6a1.5 1.5 0 1 1-2.96-.493l1-6c.168-1.003.369-2.011.78-2.823.472-.926 1.22-1.605 2.334-1.885q.179-.046.364-.046H18.5" />
  <path d="m10.631 38.112.377 3.012a1 1 0 0 0 1.962.119l.72-2.88c-.992-.037-2-.121-3.059-.252" />
  <path d="m15.316 38.385.714 2.857a1 1 0 0 0 1.962-.118l.365-2.913a35 35 0 0 1-3.041.174" />
  <path
    fill-rule="evenodd"
    d="M32 24v-2h-1a4 4 0 0 1-4-4h2a2 2 0 0 0 2 2h1v-4h-1a4 4 0 0 1 0-8h1V6h2v2h1a4 4 0 0 1 4 4h-2a2 2 0 0 0-2-2h-1v4h1a4 4 0 0 1 0 8h-1v2zm3-4h-1v-4h1a2 2 0 1 1 0 4m-4-10h1v4h-1a2 2 0 1 1 0-4"
    clip-rule="evenodd"
  />
  <path
    fill-rule="evenodd"
    d="M24 35c0-1.306.835-2.417 2-2.83V26h2v1h10v-1h2v6.17c1.165.413 2 1.524 2 2.83v7h-2v-3H26v3h-2zm14-6h-2v3h2zm-4 0h-2v3h2zm-4 0h-2v3h2zm-3 5a1 1 0 0 0-1 1v2h14v-2a1 1 0 0 0-1-1z"
    clip-rule="evenodd"
  />
</svg>
